X:1
T:Partite sopra Folia
T:Partite sopra Folia
T:Girolamo Frescobaldi (1583-1644)
T:dalle Toccate e Partite d'intavolatura di Cimbalo
C:Girolamo Frescobaldi (1583-1644)
%%score { ( 1 2 ) | ( 3 4 5 ) }
L:1/8
Q:1/4=84
M:3/2
K:F
V:1 treble nm="Cembalo" snm="Cbl."
V:2 treble 
V:3 bass 
V:4 bass 
V:5 bass 
V:1
"^Prima parte" A4- A2 A2- A2 G2 | A8 A4 | A3 B c2 d2- d2 c2 | [Ad]8 A4 | A4 x8 | A6 _e2 d2 c2 | %6
 B6 B2 A4 | =B12 ||[Q:1/4=84]"^Ripresa" z2 G2 _B2 c2 d2 B2 | A3 f e2 d2 ^c2 =B2 | ^c3 a g2 f2 e4 | %11
 [^FAd]8 A4 | d4 x8 | A4 x8 | B3 c d2 _e2 A4 | !fermata!=B12 || %16
[M:3/4][Q:1/4=68]"^Seconda parte" x6 | c6 | f3/2e/4d/4 c d2 c | d6 | A3 x2 B | f3/2e/4d/4 cd c2 | %22
 B3 A[Q:1/4=63] A2 | [=B,DG]6 ||[Q:1/4=68]"^Ripresa" z/ g/f/e/ d/e/f/e/ dc/B/ | %25
 A/d/c/B/ A/B/c/B/ AG/F/ | z/ a/g/f/ e/f/g/f/ e2 | d6 | d4 dc/B/ | A/f/e/d/ c/d/_e/d/ cB/A/ | %30
 B/c/B/A/[Q:1/4=68] G/[Q:1/4=67]"^.9"F/[Q:1/4=67]"^.4"G/[Q:1/4=66]"^.3"A/[Q:1/4=64]"^.5" B[Q:1/4=61][Q:1/4=58]"^.3"A[Q:1/4=40] | %31
[Q:1/4=48] !fermata![DG=B]6 ||[M:6/8][Q:1/4=84]"^Terza parte" z x4 c | cfc d3 | c3 B2 A | A3 z ae | %36
 ^f2 x z c2 | cfc d2 x | B2 A[Q:1/4=80] A2 A | [G=B]6 ||[Q:1/4=84]"^Ripresa" z dG BAG | %41
 A2 G A2 =B | ^c2 d e2 e | [^FAd]6 | z dA BAG | Afd _edc | BcB[Q:1/4=80] AGA | !fermata![DG=B]6 || %48
[M:3/4][Q:1/4=84]"^Quarta parte" ^FD/E/ FG/A/ _Bc/B/ | A4 G2 | AB/c/ de/f/ ga/g/ | [Ad^f]6 | %52
 A2 x4 | z =f/e/ dc/=B/ c2 | %54
[Q:1/4=84] B2[Q:1/4=83][Q:1/4=83][Q:1/4=82]"^.7" B[Q:1/4=80]"^.5"c/[Q:1/4=78]"^.8"B/[Q:1/4=76]"^.7" A2[Q:1/4=71][Q:1/4=56] | %55
[Q:1/4=64] [DG=B]6 ||[Q:1/4=84]"^Ripresa" z G/A/ _Bf/e/ dc/B/ | A2 A2 d2 | ^ca/g/ fe/d/ c=B/c/ | %59
 [^FAd]4 AD/E/ | =Fd/c/ BA/G/ Fc/B/ | A3 B cA | %62
[Q:1/4=84] B[Q:1/4=83]"^.8"g/[Q:1/4=83]"^.5"f/[Q:1/4=83] _e2[Q:1/4=81][Q:1/4=80][Q:1/4=78]"^.6" d2[Q:1/4=74][Q:1/4=71] | %63
[Q:1/4=69] !fermata![G=Bd]6 ||[M:6/8][Q:1/4=84]"^Quinta parte"[Q:3/8=9999] x6 | %65
[M:3/4]"^=""_="[Q:1/4=84] z d e ^f2 g | z c d _e2 d | c2 z d2 c | d2 z2 de | ^f2 x4 | A2 E =F2 _E | %71
[Q:1/4=84] z[Q:1/4=83]"^.8" G[Q:1/4=82]"^.7" A[Q:1/4=80]"^.5"B[Q:1/4=76]"^.7" A2[Q:1/4=50] | %72
[Q:1/4=64] [DG=B]6 ||[Q:1/4=84]"^Ripresa" z G A_B AG | ^Fd e=f ed | ^c3 d- dc | [^FAd]6 | x6 | %78
 z c d_e dc | %79
[Q:1/4=84] B[Q:1/4=83]"^.8"c[Q:1/4=83] B[Q:1/4=81]"^.3"A[Q:1/4=78]"^.6" G[Q:1/4=74]"^.5"^F | %80
[Q:1/4=69] !fermata![DG=B]6 ||[M:3/4][Q:1/4=68]"^Sesta parte" z d/c/ _B/A/B c/B/A/G/ | %82
 c2 f/e/d/c/ d2 | A2 B/A/G/^F/ B2 | A4 a/g/^f/e/ | ^f2 d/c/B/A/ c2 | %86
 c2 _e/d/c/B/ c/B/4c/4B/4c/4B/4A/4 | %87
[Q:1/4=68] B2[Q:1/4=66]"^.4" c/[Q:1/4=65]"^.2"B/[Q:1/4=63]"^.6"A/[Q:1/4=61]"^.5"G/[Q:1/4=58]"^.9" ^F/[Q:1/4=55]"^.8"G/4[Q:1/4=54]"^.1"F/4[Q:1/4=52]"^.2"G/4[Q:1/4=50]"^.1"F/4[Q:1/4=47]"^.9"=E/4[Q:1/4=45]"^.5"F/4[Q:1/4=67]"^.9"[Q:1/4=67]"^.7"[Q:1/4=67]"^.2" | %88
[Q:1/4=43] [=B,DG]6 ||[Q:1/4=68]"^Ripresa" z/ g/f/e/ d/c/_B/A/ G/A/B/G/ | %90
 F/f/e/d/ c/B/A/G/ A/a/g/f/ | e2 e2 e2 | [^FAd]6 | z/ _e/d/c/ B/A/G/A/ B/A/c/B/ | %94
 A/d/c/B/ A/G/F/G/ A/B/c/A/ | %95
[Q:1/4=68] B/[Q:1/4=67]"^.9"D/[Q:1/4=67]"^.7"E/[Q:1/4=67]"^.1"F/[Q:1/4=66]"^.1" E/[Q:1/4=64]"^.6"F/[Q:1/4=62]"^.7"G/[Q:1/4=60]"^.2"=E/[Q:1/4=57]"^.1" z[Q:1/4=53][Q:1/4=49] A[Q:1/4=43] | %96
[Q:1/4=38] !fermata![DG=B]6 |] %97
V:2
 ^F3 E F2 F2 x4 | =F8 F4 | F4 F4 G4 | ^F8 x4 | ^F3 D E2 F2 G4 | x12 | z2 ^F2 G2 =E2 F4 | [DG]12 || %8
 x12 | F2 x10 | x12 | x12 | B3 c d2 B2 A2 G2 | F3 D E2 F2 G2 A2 | G4- G4 ^F4 | [DG]12 || %16
[M:3/4] d3/2c/4B/4 A_B AG | A6 | z2 F2 G2 | ^F6 | ^F3 G =FE | A z z G2 F | G3 G G^F | x6 || x6 | %25
 x6 | x4 A2 | [^FA]6 | B4 x2 | x6 | x4 z/"^.8" G^F/ | x6 ||[M:6/8] x dA B2 _B | A3 z BG | %34
 A2 F z GG | ^F3 x x2 | z dA BGE | A2 x z AF | G2 G G2 ^F | D6 || x6 | F2 x F2 x | x3 d2 ^c | x6 | %44
 x6 | x6 | x6 | x6 ||[M:3/4] x6 | =F4 x2 | x6 | x6 | ^FD/E/ FG/A/ Bc/B/ | A2 x2 z G/^F/ | %54
 z"^.8" G/"^.4"A/ G2 G"^.3"^F | x6 || x6 | F2 F3 G | x6 | x6 | x6 | z F/E/ x4 | %62
 x2 z"^.3" c/"^.1"B/ A"^.5"G/"^.9"A/ | x6 ||[M:6/8] x6 |[M:3/4] x6 | z A B c2 B | AB cB AG | %68
 ^F2 x4 | z A B c2 B | z D x4 | z2 z G2 ^F | x6 || x6 | x6 | z A GF GE | x6 | z B cd cB | A2 x4 | %79
 G2 x4 | x6 ||[M:3/4] x6 | A2 x2 A/G/F/E/ | F2 x2 G/^F/4G/4F/4G/4F/4=E/4 | ^F4 x2 | x4 G2 | A2 x4 | %87
 G2 x4 | x6 || x6 | x6 | ^c2 d3 c | x6 | x6 | x6 | x4 ^F/"^.4"G"^.9"F/ | x6 |] %97
V:3
 D8 C2 B,2 | C8 x4 | C4 C2 B,2- B,2 G,2 | A,12 | D3 C B,2 A,2 B,4 | [A,C]4 x8 | %6
 G,2 D,2 _E,2 C,2 D,4 | G,12 || [_B,D]8 D4 | [A,D]8 x4 | [^CE]4 D4 C4 | D12 | B,8 x4 | A,8 x4 | %14
 D3 C B,2 C2 D4 | G,12 ||[M:3/4] ^F4 x2 | =F3/2E/4D/4 CD A,B, | C3 B, G,2 | A,6 | x6 | F2 x4 | x6 | %23
 G,6 || D6 | D6 | E2 D2 ^C/D/4C/4D/4C/4=B,/4C/4 | D6 | z/ _E/D/C/ B,/C/D/C/ B,A,/G,/ | %29
 [A,C]2 A,2 x2 | D2 x4 | x6 ||[M:6/8] ^F3 G3 | x6 | z x2 G,2 x | D6 | D2 z z G,2 | C3 z x2 | %38
 G,_E,C, D,C,D, | G,6 || [_B,D]2 x4 | z A,E, F,E,D, | A,G,F, G,E,A, | D6 | [F,B,]2 x4 | [A,C]2 x4 | %46
 G,3 G,2 ^F, | G,6 ||[M:3/4] A,4 G,2 | F,D,/E,/ F,G,/A,/ B,C/B,/ | C3 B, B,A, | A,4 A,2 | %52
 DC/B,/ A,G,/^F,/ G,E, | =F,D,/E,/ F,2 x2 | z G,/F,/ _E,D,/C,/ D,C,/D,/ | G,,6 || [_B,D]4 DE | %57
 x2 z D/C/ B,A,/G,/ | E2 D2 ED/E/ | D6 | B,6 | C2 DC/B,/ A,G,/F,/ | D2 C2 ^F,2 | G,6 ||[M:6/8] x6 | %65
[M:3/4] ^F2 G A2 G | =F4 F,2- | F,G, A,G, F,_E, | A,6 | z ^F, G, A,2 G, | A,2 z2 B,C- | %71
 CB, A,G, C,D, | G,,6 || D4 D2 | [A,D]4 x2 | E4 x2 | [D,D]6 | [F,B,]4 x2 | [A,C]4 x2 | G,4 A,2 | %80
 G,6 ||[M:3/4] ^F3 G x2 | =F4 x2 | D/C/B,/A,/ G,/F,/E,/D,/ _E,/D,/4E,/4D,/4E,/4D,/4C,/4 | D6 | %85
 A/G/^F/E/ F2 E/=F/4E/4F/4E/4D/4E/4 | F2 C/B,/A,/G,/ A,/G,/4A,/4G,/4A,/4G,/4^F,/4 | %87
 G,/=F,/=E,/D,/ C,/D,/_E,/C,/ D2 | G,6 || [_B,D]4 x2 | [A,D]4 x2 | %91
 A,/A/G/F/ E/D/=C/B,/ A,/^F,/G,/A,/ | D6 | [F,B,]4 x2 | C>D C/B,/A,/G,/ F,/G,/A,/F,/ | %95
 G,/F,/E,/D,/ C,/D,/_E,/C,/ D,/B,,/C,/D,/ | G,6 |] %97
V:4
 D,8 E,4 | F,8 F,,4 | F,3 G, A,2 D,2 _E,4 | D,12 | x8 z2 E,2 | F,6 D,2 =E,2 F,2 | x12 | G,,12 || %8
 G,6 A,2 B,2 C2 | D,6 E,2 =F,2 G,2 | A,4 B,2 G,2 A,4 | [D,A,]12 | B,,6 C,2 D,2 E,2 | %13
 F,6 D,2 E,2 F,2 | G,6 C,2 D,4 | G,,12 ||[M:3/4] D3 D E2 | =F,6 | [F,A,]3 D, _E,2 | D,6 | %20
 D3/2C/4B,/4 A,B, A,G, | [F,C]3 D, E,F, | G,3/2F,/4E,/4 D,_E, C,D, | G,,6 || G,3 A, B,C | %25
 D,3 E, F,G, | [A,^C]2 B,G, A,2 | [D,A,]6 | _B,2 x4 | F,3 D, =E,F, | %30
 G,>F, _E,/D,/E,/C,/ D,/B,,/C,/D,/ | G,,6 ||[M:6/8] D3 z DE | =F6 | x F,D, z _E,C, | [D,A,]6 | %36
 [D,A,]2 x x E,2 | F,3 x F,D, | x6 | G,,6 || G,3 A,B,C | D,2 x4 | A,,2 x4 | [D,A,]6 | B,,3 C,D,E, | %45
 F,3 D,=E,F, | z2 C, D,2 D, | G,,6 ||[M:3/4] D,4 G,,2 | x6 | [F,A,]3 D, _E,C, | [D,D]6 | D,4 x2 | %53
 x2 z F,,/G,,/ A,,_B,,/A,,/ | G,,2 x4 | x6 || G,3 A, B,C | DD,/E,/ F,2 x2 | A,2 B,G, A,2 | %59
 [D,A,]6 | B,,3 C, D,E, | F,4 x2 | [G,B,]2 [C,G,]2 D,2 | G,,6 ||[M:6/8] x6 |[M:3/4] D2 z2 DE | x6 | %67
 x6 | D,6 | D,2 x2 E,2 | =F,6 | G,2 x4 | x6 || G,3 A, _B,C | D,3 E, =F,G, | A,3 B, G,A, | x6 | %77
 B,,3 C, D,E, | F,3 D, =E,F, | z G,, A,,B,, C,D, | G,,6 ||[M:3/4] D4 E2 | =F,6 | F,2 x4 | D,6 | %85
 D2 D2 x2 | F,2 x4 | x4 [D,A,]2 | G,,6 || G,3 A, B,C | D,3 E, F,G, | x6 | [D,A,]6 | B,,3 C, D,=E, | %94
 [F,A,]2 x4 | x6 | G,,6 |] %97
V:5
 x12 | x12 | x12 | x12 | x12 | x12 | x12 | x12 || x12 | x12 | x12 | x12 | x12 | x12 | x12 | x12 || %16
[M:3/4] x6 | x6 | x6 | x6 | x6 | x6 | x6 | x6 || _B,2 x4 | A,4 x2 | x6 | x6 | x6 | x6 | x6 | x6 || %32
[M:6/8] x6 | x6 | x6 | x6 | x6 | x6 | x6 | x6 || x6 | x6 | x6 | x6 | x6 | x6 | x6 | x6 || %48
[M:3/4] x6 | x6 | x6 | x6 | x6 | x6 | x6 | x6 || x6 | x6 | x6 | x6 | x6 | x6 | x6 | x6 || %64
[M:6/8] x6 |[M:3/4] x6 | x6 | x6 | x6 | x6 | x6 | x6 | x6 || x6 | x6 | x6 | x6 | x6 | x6 | x6 | %80
 x6 ||[M:3/4] x6 | C4 x2 | x6 | x6 | x6 | x6 | x6 | x6 || x6 | x6 | x6 | x6 | x6 | x6 | x6 | x6 |] %97

